X:126
T: BLAUER BLAUER FINGERHUT
N: K2186
O: Europa, Mitteleuropa, Deutschland, Darmstadt
R: Kinder - Lied, Reigen, Tanz - Spiel, Brautwerbung
M: 2/4
L: 1/8
K: C
 | GGAA | GGE2
GGAA | GGE2
GGAA | G2E
C | GGAA | G2E2
GGAA | G2E2
G2AA | G2E2
GGAA | GGE2
GGAA | G2Ez

